static/assets/images/tokens/usdr.svg

<svg width="256" height="256" viewBox="0 0 256 256" fill="none" xmlns="http://www.w3.org/2000/svg">
<path fill-rule="evenodd" clip-rule="evenodd" d="M256 128C256 198.692 198.692 256 128 256C57.3075 256 0 198.692 0 128C0 57.3075 57.3075 0 128 0C198.692 0 256 57.3075 256 128Z" fill="#2E5CFF"/>
<path d="M196.366 72.633C183.007 56.2985 165.833 45.9207 144.846 41.4997C136.095 39.6507 138.169 26.057 148.663 28.3605C175.526 34.2759 196.637 48.448 211.998 70.8769C216.404 77.3123 212.277 80.7933 206.55 83.603C194.842 89.3669 183.148 95.1755 171.467 101.029C167.567 102.992 164.626 104.748 160.53 101.752C151.284 94.9896 142.025 88.2478 132.752 81.5267C129.911 79.4677 127.191 79.3644 124.59 81.2168C115.146 87.9448 105.749 94.7314 96.4003 101.576C91.7776 104.954 89.2806 102.94 84.9571 100.843C72.1829 94.6315 59.5015 88.2478 46.9129 81.692C42.4038 79.3472 41.6918 75.1844 44.5397 71.0525C60.382 48.0383 81.7894 33.7422 108.762 28.1642C116.057 26.6561 120.68 35.9217 114.592 40.1981C113.759 40.7766 112.191 41.3309 109.887 41.8612C90.4672 46.3305 74.0368 56.4052 60.5952 72.0855C60.0312 72.7397 60.1343 73.2596 60.9048 73.6453L90.2711 88.3649C90.7252 88.5921 91.1551 88.5543 91.561 88.2513C99.1278 82.632 106.733 77.0781 114.375 71.5897C125.591 63.5326 132.67 64.6276 143.401 72.4264C150.658 77.6876 157.905 82.9729 165.142 88.2822C165.417 88.482 165.709 88.5061 166.019 88.3546L196.201 73.3664C196.565 73.1873 196.62 72.9428 196.366 72.633Z" fill="white"/>
<path d="M43.6317 106.152C33.9529 146.892 52.9699 186.826 89.9616 205.781C92.4243 207.041 94.0202 208.195 94.7494 209.241C97.4219 213.084 94.3882 219.271 89.714 219.53C88.2762 219.612 86.3949 219.085 84.0698 217.949C38.9574 195.803 16.9275 144.155 32.4465 95.9984C34.3141 90.1932 37.4509 86.6295 43.7555 89.7284C57.0113 96.236 70.2224 102.833 83.3887 109.52C86.1128 110.904 87.9805 113.011 88.032 115.976C88.1215 121.017 88.1318 130.596 88.063 144.713C88.0011 158.224 91.4268 162.645 104.789 162.624C111.042 162.61 117.302 162.631 123.569 162.686C123.961 162.686 124.157 162.882 124.157 163.275C124.246 180.222 124.219 197.118 124.074 213.962C123.992 223.992 110.423 223.93 110.32 213.187C110.203 201.026 110.213 188.827 110.351 176.59C110.352 176.527 110.341 176.465 110.318 176.407C110.295 176.349 110.26 176.296 110.216 176.251C110.172 176.206 110.119 176.169 110.061 176.144C110.003 176.119 109.94 176.106 109.876 176.104C104.304 176.032 97.9894 176.683 92.9643 175.082C79.2613 170.733 74.4117 160.114 74.4014 146.593C74.4014 137.957 74.4014 129.311 74.4014 120.655C74.4014 120.373 74.2741 120.17 74.0196 120.046L44.6945 105.646C44.1304 105.371 43.7761 105.54 43.6317 106.152Z" fill="white"/>
<path d="M182.384 120.8C182.109 130.358 182.006 139.92 182.075 149.485C182.167 162.273 174.171 173.119 161.623 175.629C157.434 176.466 151.769 176.032 146.951 176.104C146.538 176.111 146.342 176.321 146.362 176.734C146.455 178.408 146.146 179.978 146.146 181.486C146.118 192.063 146.104 202.641 146.104 213.218C146.104 221.565 136.24 224.767 133.175 217.319C132.708 216.169 132.47 214.083 132.463 211.059C132.436 195.097 132.432 179.114 132.453 163.11C132.453 163.047 132.465 162.985 132.489 162.928C132.513 162.87 132.548 162.818 132.592 162.774C132.636 162.729 132.688 162.694 132.746 162.671C132.804 162.647 132.865 162.634 132.928 162.634C138.899 162.676 144.897 162.676 150.923 162.634C162.397 162.562 168.557 160.062 168.547 147.832C168.547 137.441 168.547 127.056 168.547 116.678C168.54 113.566 169.916 111.324 172.674 109.954C185.449 103.598 198.206 97.207 210.946 90.782C217.24 87.6108 221.594 87.5695 223.957 95.0584C239.363 143.907 218.643 194.646 173.108 217.784C170.68 219.017 168.726 219.616 167.247 219.581C162.562 219.457 159.271 213.518 161.737 209.489C162.445 208.332 163.952 207.176 166.256 206.019C203.723 187.146 222.853 146.655 212.834 105.626C212.818 105.561 212.788 105.5 212.745 105.449C212.703 105.397 212.649 105.356 212.587 105.328C212.526 105.3 212.458 105.287 212.39 105.288C212.322 105.29 212.255 105.306 212.194 105.336L182.931 119.942C182.573 120.121 182.391 120.407 182.384 120.8Z" fill="white"/>
</svg>

<svg xmlns="http://www.w3.org/2000/svg" fill="none" viewBox="0 0 256 256"><path fill="#2E5CFF" fill-rule="evenodd" d="M256 128c0 70.692-57.308 128-128 128S0 198.692 0 128 57.308 0 128 0s128 57.308 128 128" clip-rule="evenodd"/><path fill="#fff" d="M196.366 72.633q-20.039-24.501-51.52-31.133c-8.751-1.85-6.677-15.443 3.817-13.14q40.294 8.874 63.335 42.517c4.406 6.435.279 9.916-5.448 12.726a5544 5544 0 0 0-35.083 17.426c-3.9 1.963-6.841 3.719-10.937.723a7986 7986 0 0 0-27.778-20.225q-4.261-3.09-8.162-.31a2681 2681 0 0 0-28.19 20.359c-4.622 3.378-7.12 1.364-11.443-.733a1547 1547 0 0 1-38.044-19.151c-4.51-2.345-5.221-6.508-2.373-10.64q23.764-34.521 64.222-42.888c7.295-1.508 11.918 7.758 5.83 12.034q-1.25.868-4.705 1.663-29.13 6.704-49.292 30.225-.846.981.31 1.56L90.27 88.364q.681.341 1.29-.114a1773 1773 0 0 1 22.814-16.661c11.216-8.057 18.295-6.962 29.026.836a4766 4766 0 0 1 21.741 15.856q.412.3.877.073L196.2 73.365q.546-.268.165-.733m-152.733 33.52c-9.68 40.74 9.338 80.674 46.33 99.629q3.693 1.89 4.787 3.46c2.673 3.843-.36 10.03-5.035 10.289q-2.157.123-5.644-1.581c-45.113-22.146-67.142-73.794-51.623-121.95 1.867-5.806 5.004-9.37 11.308-6.27A3263 3263 0 0 1 83.39 109.52c2.724 1.384 4.592 3.491 4.643 6.456q.135 7.561.031 28.737c-.062 13.511 3.364 17.932 16.726 17.911q9.38-.02 18.78.062.588 0 .588.589.134 25.42-.083 50.687c-.082 10.03-13.651 9.968-13.754-.775a1751 1751 0 0 1 .031-36.597.475.475 0 0 0-.475-.486c-5.572-.072-11.887.579-16.912-1.022-13.703-4.349-18.552-14.968-18.563-28.489v-25.938a.63.63 0 0 0-.381-.609l-29.325-14.4q-.847-.412-1.063.506M182.384 120.8a797 797 0 0 0-.309 28.685c.092 12.788-7.904 23.634-20.452 26.144-4.189.837-9.854.403-14.672.475q-.62.01-.589.63c.093 1.674-.216 3.244-.216 4.752q-.042 15.866-.042 31.732c0 8.347-9.864 11.549-12.929 4.101q-.701-1.724-.712-6.26-.041-23.943-.01-47.949a.47.47 0 0 1 .139-.336.47.47 0 0 1 .336-.14q8.956.063 17.995 0c11.474-.072 17.634-2.572 17.624-14.802v-31.154q-.01-4.669 4.127-6.724a7894 7894 0 0 0 38.272-19.172c6.294-3.171 10.648-3.212 13.011 4.276 15.406 48.849-5.314 99.588-50.849 122.726q-3.642 1.85-5.861 1.797c-4.685-.124-7.976-6.063-5.51-10.092q1.063-1.735 4.519-3.47c37.467-18.873 56.597-59.364 46.578-100.393a.44.44 0 0 0-.247-.298.46.46 0 0 0-.393.008l-29.263 14.606q-.537.269-.547.858"/></svg>
